Newaita-dark/actions/24/games-hint.svg

<svg height="24" viewBox="0 0 24 24" width="24" xmlns="http://www.w3.org/2000/svg"><g fill="#e0e0e0"><path d="m9.261719 14.378906 5.773437 1.445313c.53125.132812.855469.671875.722656 1.203125-.132812.53125-.671874.855468-1.203124.722656l-5.777344-1.445312c-.53125-.132813-.851563-.671876-.71875-1.203126.132812-.53125.667968-.855468 1.203125-.722656zm0 0"/><path d="m9.261719 17.851562 5.773437 1.445313c.53125.132813.855469.671875.722656 1.203125-.132812.53125-.671874.855469-1.203124.722656l-5.777344-1.445312c-.53125-.132813-.851563-.671875-.71875-1.203125.132812-.53125.667968-.855469 1.203125-.722657zm0 0"/><path d="m11.90625 19.039062c.824219 0 1.488281.667969 1.488281 1.492188 0 .820312-.664062 1.488281-1.488281 1.488281-.820312 0-1.488281-.667969-1.488281-1.488281 0-.824219.667969-1.492188 1.488281-1.492188zm0 0"/><path d="m11.90625 2.171875c-3.296875 0-5.953125 2.65625-5.953125 5.953125 0 3.300781 2.65625 5.953125 5.953125 5.953125 3.300781 0 5.953125-2.652344 5.953125-5.953125 0-3.296875-2.652344-5.953125-5.953125-5.953125zm0 1.984375c2.199219 0 3.96875 1.769531 3.96875 3.96875s-1.769531 3.96875-3.96875 3.96875-3.96875-1.769531-3.96875-3.96875 1.769531-3.96875 3.96875-3.96875zm0 0"/><path d="m14.382812 6.46875c.003907.058594.003907.113281.003907.167969 0 2.199219-1.769531 3.96875-3.96875 3.96875-.054688 0-.109375 0-.164063-.003907.472656.316407 1.039063.5 1.652344.5 1.648438 0 2.976562-1.328124 2.976562-2.976562 0-.613281-.183593-1.183594-.5-1.65625zm0 0"/></g></svg>

<svg xmlns="http://www.w3.org/2000/svg" xmlns:xlink="http://www.w3.org/1999/xlink" width="24px" height="24px" viewBox="0 0 24 24" version="1.1">
<g id="surface1">
     <defs>
  <style id="current-color-scheme" type="text/css">
   .ColorScheme-Text { color:#eeeeee; } .ColorScheme-Highlight { color:#424242; }
  </style>
 </defs>
<path style="fill:currentColor" class="ColorScheme-Text" d="M 9.261719 14.378906 L 15.035156 15.824219 C 15.566406 15.957031 15.890625 16.496094 15.757812 17.027344 C 15.625 17.558594 15.085938 17.882812 14.554688 17.75 L 8.777344 16.304688 C 8.246094 16.171875 7.925781 15.632812 8.058594 15.101562 C 8.191406 14.570312 8.726562 14.246094 9.261719 14.378906 Z M 9.261719 14.378906 "/>
     <defs>
  <style id="current-color-scheme" type="text/css">
   .ColorScheme-Text { color:#eeeeee; } .ColorScheme-Highlight { color:#424242; }
  </style>
 </defs>
<path style="fill:currentColor" class="ColorScheme-Text" d="M 9.261719 17.851562 L 15.035156 19.296875 C 15.566406 19.429688 15.890625 19.96875 15.757812 20.5 C 15.625 21.03125 15.085938 21.355469 14.554688 21.222656 L 8.777344 19.777344 C 8.246094 19.644531 7.925781 19.105469 8.058594 18.574219 C 8.191406 18.042969 8.726562 17.71875 9.261719 17.851562 Z M 9.261719 17.851562 "/>
     <defs>
  <style id="current-color-scheme" type="text/css">
   .ColorScheme-Text { color:#eeeeee; } .ColorScheme-Highlight { color:#424242; }
  </style>
 </defs>
<path style="fill:currentColor" class="ColorScheme-Text" d="M 11.90625 19.039062 C 12.730469 19.039062 13.394531 19.707031 13.394531 20.53125 C 13.394531 21.351562 12.730469 22.019531 11.90625 22.019531 C 11.085938 22.019531 10.417969 21.351562 10.417969 20.53125 C 10.417969 19.707031 11.085938 19.039062 11.90625 19.039062 Z M 11.90625 19.039062 "/>
     <defs>
  <style id="current-color-scheme" type="text/css">
   .ColorScheme-Text { color:#eeeeee; } .ColorScheme-Highlight { color:#424242; }
  </style>
 </defs>
<path style="fill:currentColor" class="ColorScheme-Text" d="M 11.90625 2.171875 C 8.609375 2.171875 5.953125 4.828125 5.953125 8.125 C 5.953125 11.425781 8.609375 14.078125 11.90625 14.078125 C 15.207031 14.078125 17.859375 11.425781 17.859375 8.125 C 17.859375 4.828125 15.207031 2.171875 11.90625 2.171875 Z M 11.90625 4.15625 C 14.105469 4.15625 15.875 5.925781 15.875 8.125 C 15.875 10.324219 14.105469 12.09375 11.90625 12.09375 C 9.707031 12.09375 7.9375 10.324219 7.9375 8.125 C 7.9375 5.925781 9.707031 4.15625 11.90625 4.15625 Z M 11.90625 4.15625 "/>
     <defs>
  <style id="current-color-scheme" type="text/css">
   .ColorScheme-Text { color:#eeeeee; } .ColorScheme-Highlight { color:#424242; }
  </style>
 </defs>
<path style="fill:currentColor" class="ColorScheme-Text" d="M 14.382812 6.46875 C 14.386719 6.527344 14.386719 6.582031 14.386719 6.636719 C 14.386719 8.835938 12.617188 10.605469 10.417969 10.605469 C 10.363281 10.605469 10.308594 10.605469 10.253906 10.601562 C 10.726562 10.917969 11.292969 11.101562 11.90625 11.101562 C 13.554688 11.101562 14.882812 9.773438 14.882812 8.125 C 14.882812 7.511719 14.699219 6.941406 14.382812 6.46875 Z M 14.382812 6.46875 "/>
</g>
</svg>
